src/topics/icons/jsfiddle.svg

<svg height="175" viewBox="0 0 256 175" width="256" xmlns="http://www.w3.org/2000/svg"><path d="m224.942987 79.4961013c.091383-1.497114.226836-2.9812659.226836-4.4978228 0-41.4201519-34.09596-74.9982785-76.15838-74.9982785-30.331139 0-56.4431392 17.4987342-68.6922531 42.7682025-5.9430886-4.5367088-13.3832912-7.2652152-21.478076-7.2652152-19.4041519 0-35.1335696 15.4896203-35.1335696 34.5956456 0 3.590481.5508861 7.0578228 1.5878481 10.3112912-15.1266835 8.8595443-25.2953924 25.0620759-25.2953924 43.6496199 0 27.790583 22.6641013 50.331545 50.7852152 50.759291l.5962532.032406.2073924.006481.2073924-.006481h151.0335188c.920304.044718 1.821165.136101 2.754431.136101 27.84243 0 50.415797-22.223393 50.415797-49.644557 0-20.66795-12.825924-38.3675951-31.057013-45.8466837zm-156.2183288 57.0847597c-5.113519-4.628091-8.2956962-10.240648-9.5724557-16.850633-.4212658-2.210025-.6351392-4.523747-.6351392-6.960608-.006481-9.423392 3.4219747-17.2142175 10.2918481-23.3504403 6.8633924-6.144 15.5933164-9.222481 26.1962532-9.2166481 10.8816204 0 21.1410634 4.070076 30.2015194 12.2167089 2.261873 2.0292051 4.445974 4.3163544 6.552303 6.8504304l11.652213 13.7015091c2.016243 2.760911 4.180901 5.145276 6.416203 7.15439 5.981974 5.373407 12.475949 8.062379 17.959534 8.062379 4.665681 0 8.560769-1.425822 11.697579-4.29043 2.735636-2.605367 4.278117-5.722734 4.621611-9.332658l.070643-1.580719c0-1.568405-.220355-3.052557-.673378-4.445327-.745316-2.320202-2.113458-4.407737-4.096-6.267787-3.097924-2.9553419-7.000141-4.4135698-11.730633-4.4135698-5.814116 0-11.562774 1.9572659-17.862318 8.0617318l-10.317773-12.1324558-1.257316-1.4063798c9.022218-8.8401012 18.030177-12.1583797 30.156152-12.1583797 10.745519 0 19.443038 3.0525569 26.099038 9.1453569l.149063.1224912c6.765529 6.0791899 10.155747 13.9406582 10.155747 23.5850532 0 2.385013-.213874 4.665681-.635139 6.83682-1.269631 6.52638-4.458289 12.087089-9.553013 16.695089-5.002694 4.608648-11.107808 7.492699-18.315342 8.63919-2.403159.382379-4.931402.57681-7.582136.57681-11.127899-.006481-21.420395-3.985823-30.273459-11.931544-2.390845-2.151697-4.678643-4.588557-6.849782-7.323545l-11.652861-13.603645c-1.970228-2.728507-4.102481-5.087595-6.318987-7.083747-5.969013-5.360446-12.547241-8.0429369-18.1857216-8.0429369-1.7498734 0-3.3895696.2067443-4.9190886.6156962-2.540557.6805063-4.7635443 1.9378227-6.6819241 3.7661167-2.3461265 2.235301-3.8173164 4.808911-4.4006076 7.718238-.1944303.965671-.2981265 1.976709-.2916455 3.020152 0 4.134886 1.4906329 7.673519 4.4718987 10.609417l.2268354.213874c3.2016203 2.929417 7.135595 4.387645 11.8019241 4.387645 5.8653162 0 11.6398992-1.969579 17.9264812-8.126541l10.265924 11.982744 1.134177 1.367494c-9.371544 8.943797-18.282937 12.326886-29.9422784 12.320405-10.739038 0-19.5013671-3.046076-26.2999494-9.131747z" fill="#4679a4" fill-rule="evenodd"/></svg>

<?xml version="1.0" encoding="UTF-8" standalone="no"?>
<svg width="256px" height="175px" viewBox="0 0 256 175" version="1.1" xmlns="http://www.w3.org/2000/svg" xmlns:xlink="http://www.w3.org/1999/xlink">
    <defs></defs>
    <g stroke="none" stroke-width="1" fill="none" fill-rule="evenodd">
        <path d="M224.942987,79.4961013 C225.03437,77.9989873 225.169823,76.5148354 225.169823,74.9982785 C225.169823,33.5781266 191.073863,0 149.011443,0 C118.680304,0 92.5683038,17.4987342 80.3191899,42.7682025 C74.3761013,38.2314937 66.9358987,35.5029873 58.8411139,35.5029873 C39.436962,35.5029873 23.7075443,50.9926076 23.7075443,70.0986329 C23.7075443,73.6891139 24.2584304,77.1564557 25.2953924,80.4099241 C10.1687089,89.2694684 0,105.472 0,124.059544 C0,151.850127 22.6641013,174.391089 50.7852152,174.818835 L51.3814684,174.851241 L51.5888608,174.857722 L51.7962532,174.851241 L202.829772,174.851241 C203.750076,174.895959 204.650937,174.987342 205.584203,174.987342 C233.426633,174.987342 256,152.763949 256,125.342785 C256,104.674835 243.174076,86.9751899 224.942987,79.4961013 L224.942987,79.4961013 Z M68.7246582,136.580861 C63.6111392,131.95277 60.428962,126.340213 59.1522025,119.730228 C58.7309367,117.520203 58.5170633,115.206481 58.5170633,112.76962 C58.5105823,103.346228 61.939038,95.5554025 68.8089114,89.4191797 C75.6723038,83.2751797 84.4022278,80.1966987 95.0051646,80.2025316 C105.886785,80.2025316 116.146228,84.2726076 125.206684,92.4192405 C127.468557,94.4484456 129.652658,96.7355949 131.758987,99.2696709 L143.4112,112.97118 C145.427443,115.732091 147.592101,118.116456 149.827403,120.12557 C155.809377,125.498977 162.303352,128.187949 167.786937,128.187949 C172.452618,128.187949 176.347706,126.762127 179.484516,123.897519 C182.220152,121.292152 183.762633,118.174785 184.106127,114.564861 L184.17677,112.984142 C184.17677,111.415737 183.956415,109.931585 183.503392,108.538815 C182.758076,106.218613 181.389934,104.131078 179.407392,102.271028 C176.309468,99.3156861 172.407251,97.8574582 167.676759,97.8574582 C161.862643,97.8574582 156.113985,99.8147241 149.814441,105.91919 L139.496668,93.7867342 L138.239352,92.3803544 C147.26157,83.5402532 156.269529,80.2219747 168.395504,80.2219747 C179.141023,80.2219747 187.838542,83.2745316 194.494542,89.3673316 L194.643605,89.4898228 C201.409134,95.5690127 204.799352,103.430481 204.799352,113.074876 C204.799352,115.459889 204.585478,117.740557 204.164213,119.911696 C202.894582,126.438076 199.705924,131.998785 194.6112,136.606785 C189.608506,141.215433 183.503392,144.099484 176.295858,145.245975 C173.892699,145.628354 171.364456,145.822785 168.713722,145.822785 C157.585823,145.816304 147.293327,141.836962 138.440263,133.891241 C136.049418,131.739544 133.76162,129.302684 131.590481,126.567696 L119.93762,112.964051 C117.967392,110.235544 115.835139,107.876456 113.618633,105.880304 C107.64962,100.519858 101.071392,97.8373671 95.4329114,97.8373671 C93.683038,97.8373671 92.0433418,98.0441114 90.5138228,98.4530633 C87.9732658,99.1335696 85.7502785,100.390886 83.8318987,102.21918 C81.4857722,104.454481 80.0145823,107.028091 79.4312911,109.937418 C79.2368608,110.903089 79.1331646,111.914127 79.1396456,112.95757 C79.1396456,117.092456 80.6302785,120.631089 83.6115443,123.566987 L83.8383797,123.780861 C87.04,126.710278 90.9739747,128.168506 95.6403038,128.168506 C101.50562,128.168506 107.280203,126.198927 113.566785,120.041965 L123.832709,132.024709 L124.966886,133.392203 C115.595342,142.336 106.683949,145.719089 95.0246076,145.712608 C84.2855696,145.712608 75.5232405,142.666532 68.7246582,136.580861 L68.7246582,136.580861 Z" fill="#4679A4"></path>
    </g>
</svg>
